X:1
T:Miss Baird of Saughtonhall’s Hornpipe
T:Miss Baird of Saughtonhall’s Hornpipe
T:Nathaniel Gow
C:Nathaniel Gow
L:1/8
M:6/4
K:A
V:1 treble 
V:1
 (E2 A2 c2) .A2 .G2 .B2 | (e2 A2 c2) .A2 e4 | Tf3 g a2 A2 G2 B2 | TF2 B2 (AG)FE A4 :| %4
 (A c2 a2) c2 d2 B2 | (A2 c2 e2) .c2 a4 | Tf3 g a2 A2 G2 B2 | TF2 B2 (AG)FE A4 | %8
 (A2 c2 a2) .c2 .f2 .B2 | (A2 c2 e2) c2 a4 | (fga).e dcBA G2 B2 | TF2 B2 (AG)FE A4 || %12

